build/img/icon-telegram.svg

<svg width="70" height="61" viewBox="0 0 70 61" fill="#004460" xmlns="http://www.w3.org/2000/svg">
<path d="M0.00616121 30.3886C0.0918262 31.8235 1.04842 33.0312 2.43334 33.4432L28.0757 41.1579L29.0181 58.7468C29.0609 59.4429 29.532 60.0538 30.2031 60.2812C30.3887 60.3522 30.5886 60.3806 30.7742 60.3806C31.2739 60.3806 31.7451 60.1817 32.0877 59.7981L41.1539 49.8102L54.0037 58.6615C54.5748 59.0593 55.2458 59.2724 55.9454 59.2724C57.5588 59.2724 58.958 58.1358 59.3006 56.5446L69.9659 2.45665C70.0944 1.83152 69.8517 1.17797 69.3663 0.78016C68.8666 0.368143 68.1955 0.26869 67.5959 0.510218L2.06212 27.0498C0.734314 27.6465 -0.0795038 28.9536 0.00616121 30.3886ZM32.2733 54.385L31.6879 43.289L38.2556 47.807L32.2733 54.385ZM55.8883 55.7348L32.5018 39.6235L65.2972 8.0544L55.8883 55.7348ZM61.6993 6.66206L29.275 37.8759L3.6612 30.1755L61.6993 6.66206Z"/>
</svg>

<svg xmlns="http://www.w3.org/2000/svg" width="70" height="61" fill="#004460"><path d="M.006 30.39c.086 1.435 1.042 2.643 2.427 3.055l25.642 7.715.942 17.59c.043.696.514 1.307 1.185 1.534.186.07.386.1.57.1a1.74 1.74 0 0 0 1.313-.583l9.066-9.988 12.85 8.85a3.38 3.38 0 0 0 1.942.611c1.613 0 3.013-1.137 3.355-2.728L69.966 2.457c.128-.625-.114-1.28-.6-1.676a1.74 1.74 0 0 0-1.77-.27L2.062 27.05C.734 27.647-.08 28.954.006 30.39zm32.267 23.996l-.585-11.096 6.568 4.518-5.982 6.578zm23.615 1.35l-23.386-16.11 32.795-31.57-9.41 47.68zM61.7 6.662L29.275 37.876l-25.614-7.7L61.7 6.662z"/></svg>
